icons/svg/shields/h_gray_blue_arc_shield.svg

<?xml version="1.0" encoding="UTF-8" standalone="no"?>
<!-- Generator: Adobe Illustrator 16.0.4, SVG Export Plug-In . SVG Version: 6.00 Build 0)  -->

<svg
   xmlns:dc="http://purl.org/dc/elements/1.1/"
   xmlns:cc="http://creativecommons.org/ns#"
   xmlns:rdf="http://www.w3.org/1999/02/22-rdf-syntax-ns#"
   xmlns:svg="http://www.w3.org/2000/svg"
   xmlns="http://www.w3.org/2000/svg"
   xmlns:sodipodi="http://sodipodi.sourceforge.net/DTD/sodipodi-0.dtd"
   xmlns:inkscape="http://www.inkscape.org/namespaces/inkscape"
   version="1.1"
   id="Слой_1"
   x="0px"
   y="0px"
   width="20"
   height="20"
   viewBox="0 0 19.999999 20"
   enable-background="new 0 0 17.113 17.143"
   xml:space="preserve"
   inkscape:version="0.48.4 r9939"
   sodipodi:docname="h_white_blue_arc_shield.svg"><metadata
     id="metadata13"><rdf:RDF><cc:Work
         rdf:about=""><dc:format>image/svg+xml</dc:format><dc:type
           rdf:resource="http://purl.org/dc/dcmitype/StillImage" /><dc:title></dc:title></cc:Work></rdf:RDF></metadata><defs
     id="defs11" /><sodipodi:namedview
     pagecolor="#ffffff"
     bordercolor="#666666"
     borderopacity="1"
     objecttolerance="10"
     gridtolerance="10"
     guidetolerance="10"
     inkscape:pageopacity="0"
     inkscape:pageshadow="2"
     inkscape:window-width="1680"
     inkscape:window-height="1021"
     id="namedview9"
     showgrid="true"
     inkscape:zoom="22.627417"
     inkscape:cx="8.8402428"
     inkscape:cy="9.8668746"
     inkscape:window-x="0"
     inkscape:window-y="0"
     inkscape:window-maximized="1"
     inkscape:current-layer="Слой_1"
     inkscape:snap-midpoints="false"
     inkscape:snap-object-midpoints="true"><inkscape:grid
       type="xygrid"
       id="grid2983" /></sodipodi:namedview><path
     clip-rule="evenodd"
     d="m 10.01451,1.1665181 c 4.49981,0.1402549 7.601849,2.4413323 7.940575,7.1284909 0.008,10.006727 -0.0096,10.610931 -0.0096,10.610931 L 2.0578887,18.86951 c 0,0 -0.015052,-7.086333 -0.015052,-10.8952023 0,-3.8088689 3.4718636,-6.9480483 7.9716725,-6.8077896 z"
     id="path3-6"
     style="fill:#dadada;fill-opacity:1;fill-rule:evenodd;opacity:1;color:#000000;stroke-width:1;stroke-linecap:butt;stroke-linejoin:miter;stroke-miterlimit:4;stroke-opacity:1;stroke-dasharray:none;stroke-dashoffset:0;marker:none;visibility:visible;display:inline;overflow:visible;enable-background:accumulate"
     inkscape:connector-curvature="0"
     sodipodi:nodetypes="zccczz" /><path
     style="fill:#608bba;fill-opacity:1;fill-rule:evenodd;color:#000000;stroke:none;marker:none;visibility:visible;display:inline;overflow:visible;enable-background:accumulate;opacity:0.73600003000000003;stroke-width:1;stroke-linecap:butt;stroke-linejoin:miter;stroke-miterlimit:4;stroke-opacity:1;stroke-dasharray:none;stroke-dashoffset:0"
     d="m 10.015005,0.3462213 c -4.9160352,-0.1532282 -8.7187492,3.2763199 -8.7187502,7.4375 0,4.1611797 0.03125,11.8750007 0.03125,11.8750007 l 17.3437502,-0.03125 c 0,0 0.03995,-0.536425 0.03125,-11.4687507 -0.370056,-5.1207096 -3.771467,-7.6592718 -8.6875,-7.8125 z m 0,0.8125 c 4.499809,0.1402549 7.598773,2.4378414 7.9375,7.125 0.008,10.0067277 0,10.6250007 0,10.6250007 L 2.0775048,18.877472 c 0,0 -0.03125,-7.097381 -0.03125,-10.9062507 0,-3.8088689 3.468941,-6.9527587 7.9687502,-6.8125 z"
     id="path3-8"
     inkscape:connector-curvature="0" /></svg>

<svg width="20" height="20" viewBox="0 0 20 20" fill="none" xmlns="http://www.w3.org/2000/svg">
<path fill-rule="evenodd" clip-rule="evenodd" d="M10.0145 1.16651C14.5143 1.30677 17.6164 3.60784 17.9551 8.295C17.9631 18.3017 17.9455 18.9059 17.9455 18.9059L2.05788 18.8695C2.05788 18.8695 2.04283 11.7832 2.04283 7.9743C2.04283 4.16543 5.5147 1.02625 10.0145 1.16651H10.0145Z" fill="#DADADA"/>
<path opacity="0.736" fill-rule="evenodd" clip-rule="evenodd" d="M10.015 0.346252C5.09896 0.193024 1.29625 3.62257 1.29625 7.78375C1.29625 11.9449 1.3275 19.6588 1.3275 19.6588L18.6712 19.6275C18.6712 19.6275 18.7112 19.0911 18.7025 8.15875C18.3324 3.03804 14.931 0.49948 10.015 0.346252V0.346252ZM10.015 1.15875C14.5148 1.29901 17.6138 3.59659 17.9525 8.28375C17.9605 18.2905 17.9525 18.9088 17.9525 18.9088L2.0775 18.8775C2.0775 18.8775 2.04625 11.7801 2.04625 7.97125C2.04625 4.16238 5.51519 1.01849 10.015 1.15875V1.15875Z" fill="#608BBA"/>
</svg>
